aloe_vera/img/wrapper1.svg

<svg width="75" height="75" viewBox="0 0 75 75" fill="none" xmlns="http://www.w3.org/2000/svg">
<path d="M66.7969 23.4375H65.625V22.2656C65.6241 21.5389 65.3983 20.8303 64.9787 20.2369C64.5591 19.6436 63.9661 19.1946 63.2812 18.9516V15.2344C63.2812 14.9236 63.1578 14.6255 62.938 14.4057C62.7182 14.186 62.4202 14.0625 62.1094 14.0625V9.375H66.7969C67.7293 9.375 68.6235 9.0046 69.2828 8.3453C69.9421 7.68599 70.3125 6.79178 70.3125 5.85938C70.3125 4.92697 69.9421 4.03276 69.2828 3.37345C68.6235 2.71415 67.7293 2.34375 66.7969 2.34375H55.0781C54.146 2.34484 53.2525 2.71558 52.5934 3.37465C51.9343 4.03372 51.5636 4.92731 51.5625 5.85938V8.20312C51.5625 8.51393 51.686 8.812 51.9057 9.03177C52.1255 9.25153 52.4236 9.375 52.7344 9.375H55.0781V14.0625C54.7673 14.0625 54.4692 14.186 54.2495 14.4057C54.0297 14.6255 53.9062 14.9236 53.9062 15.2344V18.9516C53.2214 19.1946 52.6284 19.6436 52.2088 20.2369C51.7892 20.8303 51.5634 21.5389 51.5625 22.2656V23.4375H50.3906C48.8372 23.4392 47.3478 24.0571 46.2493 25.1556C45.1509 26.2541 44.533 27.7434 44.5312 29.2969V32.8125H37.5V18.75H43.3594C43.6702 18.75 43.9682 18.6265 44.188 18.4068C44.4078 18.187 44.5312 17.8889 44.5312 17.5781V3.51562C44.5312 3.20482 44.4078 2.90675 44.188 2.68698C43.9682 2.46721 43.6702 2.34375 43.3594 2.34375H33.9844C33.0523 2.3448 32.1587 2.71553 31.4996 3.37461C30.8405 4.03369 30.4698 4.92729 30.4687 5.85938V32.8125H24.7852L25.7804 9.4248C25.7871 9.26685 25.7618 9.10916 25.706 8.96124C25.6501 8.81332 25.565 8.67823 25.4556 8.56409C25.3462 8.44996 25.2148 8.35914 25.0694 8.2971C24.9239 8.23507 24.7675 8.2031 24.6094 8.20312H3.51563C3.35754 8.20312 3.20108 8.2351 3.05568 8.29715C2.91027 8.35919 2.77893 8.45001 2.66954 8.56415C2.56015 8.67828 2.47499 8.81337 2.41918 8.96128C2.36337 9.10919 2.33806 9.26686 2.34478 9.4248L4.6875 64.4777V71.4844C4.6875 71.7952 4.81097 72.0932 5.03074 72.313C5.25051 72.5328 5.54858 72.6562 5.85938 72.6562H66.7969C68.3503 72.6545 69.8397 72.0366 70.9381 70.9381C72.0366 69.8397 72.6545 68.3503 72.6562 66.7969V29.2969C72.6545 27.7434 72.0366 26.2541 70.9381 25.1556C69.8397 24.0571 68.3503 23.4392 66.7969 23.4375ZM60.9375 16.4062V18.75H56.25V16.4062H60.9375ZM53.9062 5.85938C53.9066 5.54868 54.0302 5.25081 54.2499 5.03112C54.4696 4.81143 54.7674 4.68785 55.0781 4.6875H66.7969C67.1077 4.6875 67.4057 4.81097 67.6255 5.03073C67.8453 5.2505 67.9687 5.54857 67.9687 5.85938C67.9687 6.17018 67.8453 6.46825 67.6255 6.68802C67.4057 6.90778 67.1077 7.03125 66.7969 7.03125H53.9062V5.85938ZM57.4219 9.375H59.7656V14.0625H57.4219V9.375ZM53.9062 22.2656C53.9066 21.9549 54.0302 21.6571 54.2499 21.4374C54.4696 21.2177 54.7674 21.0941 55.0781 21.0938H62.1094C62.4201 21.0941 62.7179 21.2177 62.9376 21.4374C63.1573 21.6571 63.2809 21.9549 63.2812 22.2656V23.4375H53.9062V22.2656ZM55.0781 59.7656C55.077 60.6977 54.7063 61.5913 54.0472 62.2503C53.3881 62.9094 52.4946 63.2802 51.5625 63.2812H32.8125C31.8804 63.2802 30.9868 62.9094 30.3278 62.2503C29.6687 61.5913 29.298 60.6977 29.2969 59.7656V52.7344C29.298 51.8023 29.6687 50.9087 30.3278 50.2497C30.9868 49.5906 31.8804 49.2198 32.8125 49.2188H51.5625C52.4946 49.2198 53.3881 49.5906 54.0472 50.2497C54.7063 50.9087 55.077 51.8023 55.0781 52.7344V59.7656ZM44.5312 46.875H32.8125C31.259 46.8767 29.7697 47.4946 28.6712 48.5931C27.5728 49.6916 26.9549 51.1809 26.9531 52.7344V59.7656C26.9518 61.0342 27.3644 62.2685 28.1282 63.2812H24.6094C24.2986 63.2812 24.0005 63.4047 23.7807 63.6245C23.561 63.8443 23.4375 64.1423 23.4375 64.4531V66.7969C23.4362 68.0654 23.8487 69.2997 24.6126 70.3125H21.0938V69.1406C21.0938 68.8298 20.9703 68.5318 20.7505 68.312C20.5307 68.0922 20.2327 67.9688 19.9219 67.9688C19.6111 67.9688 19.313 68.0922 19.0932 68.312C18.8735 68.5318 18.75 68.8298 18.75 69.1406V70.3125H14.0625V35.1562H18.75V36.3281C18.75 36.6389 18.8735 36.937 19.0932 37.1568C19.313 37.3765 19.6111 37.5 19.9219 37.5C20.2327 37.5 20.5307 37.3765 20.7505 37.1568C20.9703 36.937 21.0938 36.6389 21.0938 36.3281V35.1562H44.5312V46.875ZM42.1875 7.03125C41.8767 7.03125 41.5786 7.15472 41.3589 7.37448C41.1391 7.59425 41.0156 7.89232 41.0156 8.20312C41.0156 8.51393 41.1391 8.812 41.3589 9.03177C41.5786 9.25153 41.8767 9.375 42.1875 9.375V11.7188C41.8767 11.7188 41.5786 11.8422 41.3589 12.062C41.1391 12.2818 41.0156 12.5798 41.0156 12.8906C41.0156 13.2014 41.1391 13.4995 41.3589 13.7193C41.5786 13.939 41.8767 14.0625 42.1875 14.0625V16.4062H39.6422C39.7757 16.03 39.8439 15.6336 39.8437 15.2344V5.85938C39.8439 5.46011 39.7757 5.06377 39.6422 4.6875H42.1875V7.03125ZM32.8125 5.85938C32.8128 5.54868 32.9364 5.25081 33.1561 5.03112C33.3758 4.81143 33.6737 4.68785 33.9844 4.6875H36.3281C36.6388 4.68785 36.9367 4.81143 37.1564 5.03112C37.3761 5.25081 37.4996 5.54868 37.5 5.85938V15.2344C37.4996 15.5451 37.3761 15.8429 37.1564 16.0626C36.9367 16.2823 36.6388 16.4059 36.3281 16.4062H32.8125V5.85938ZM32.8125 18.75H35.1562V32.8125H32.8125V18.75ZM12.8906 32.8125C12.5798 32.8125 12.2818 32.936 12.062 33.1557C11.8422 33.3755 11.7188 33.6736 11.7188 33.9844V63.2812H6.98247L4.93784 15.2344H23.1872L22.4391 32.8125H12.8906ZM23.3865 10.5469L23.2868 12.8906H4.83823L4.73848 10.5469H23.3865ZM7.03125 65.625H11.7188V70.3125H7.03125V65.625ZM29.2969 70.3125C28.3648 70.3115 27.4712 69.9407 26.8121 69.2816C26.153 68.6226 25.7823 67.729 25.7812 66.7969V65.625H58.5937V66.7969C58.5927 67.729 58.222 68.6226 57.5629 69.2816C56.9038 69.9407 56.0102 70.3115 55.0781 70.3125H29.2969ZM70.3125 66.7969C70.3114 67.729 69.9407 68.6226 69.2816 69.2816C68.6226 69.9407 67.7289 70.3115 66.7969 70.3125H59.7624C60.5262 69.2997 60.9388 68.0654 60.9375 66.7969V64.4531C60.9375 64.1423 60.814 63.8443 60.5943 63.6245C60.3745 63.4047 60.0764 63.2812 59.7656 63.2812H56.2468C57.0106 62.2685 57.4232 61.0342 57.4219 59.7656V52.7344C57.4201 51.1809 56.8022 49.6916 55.7038 48.5931C54.6053 47.4946 53.116 46.8767 51.5625 46.875H46.875V29.2969C46.876 28.3648 47.2468 27.4712 47.9058 26.8121C48.5649 26.153 49.4585 25.7823 50.3906 25.7812H66.7969C67.7289 25.7823 68.6226 26.153 69.2816 26.8121C69.9407 27.4712 70.3114 28.3648 70.3125 29.2969V66.7969Z" fill="white"/>
<path d="M58.5938 29.2969C53.9942 29.2969 50.3906 31.8706 50.3906 35.1562C50.3906 38.4419 53.9942 41.0156 58.5938 41.0156C63.1934 41.0156 66.7969 38.4419 66.7969 35.1562C66.7969 31.8706 63.1934 29.2969 58.5938 29.2969ZM58.5938 38.6719C55.4177 38.6719 52.7344 37.062 52.7344 35.1562C52.7344 33.2505 55.4177 31.6406 58.5938 31.6406C61.7698 31.6406 64.4531 33.2505 64.4531 35.1562C64.4531 37.062 61.7698 38.6719 58.5938 38.6719Z" fill="white"/>
<path d="M19.9219 39.8438C19.6111 39.8438 19.313 39.9672 19.0932 40.187C18.8735 40.4068 18.75 40.7048 18.75 41.0156V43.3594C18.75 43.6702 18.8735 43.9682 19.0932 44.188C19.313 44.4078 19.6111 44.5312 19.9219 44.5312C20.2327 44.5312 20.5307 44.4078 20.7505 44.188C20.9703 43.9682 21.0938 43.6702 21.0938 43.3594V41.0156C21.0938 40.7048 20.9703 40.4068 20.7505 40.187C20.5307 39.9672 20.2327 39.8438 19.9219 39.8438Z" fill="white"/>
<path d="M19.9219 46.875C19.6111 46.875 19.313 46.9985 19.0932 47.2182C18.8735 47.438 18.75 47.7361 18.75 48.0469V50.3906C18.75 50.7014 18.8735 50.9995 19.0932 51.2193C19.313 51.439 19.6111 51.5625 19.9219 51.5625C20.2327 51.5625 20.5307 51.439 20.7505 51.2193C20.9703 50.9995 21.0938 50.7014 21.0938 50.3906V48.0469C21.0938 47.7361 20.9703 47.438 20.7505 47.2182C20.5307 46.9985 20.2327 46.875 19.9219 46.875Z" fill="white"/>
<path d="M19.9219 53.9062C19.6111 53.9062 19.313 54.0297 19.0932 54.2495C18.8735 54.4693 18.75 54.7673 18.75 55.0781V57.4219C18.75 57.7327 18.8735 58.0307 19.0932 58.2505C19.313 58.4703 19.6111 58.5938 19.9219 58.5938C20.2327 58.5938 20.5307 58.4703 20.7505 58.2505C20.9703 58.0307 21.0938 57.7327 21.0938 57.4219V55.0781C21.0938 54.7673 20.9703 54.4693 20.7505 54.2495C20.5307 54.0297 20.2327 53.9062 19.9219 53.9062Z" fill="white"/>
<path d="M19.9219 60.9375C19.6111 60.9375 19.313 61.061 19.0932 61.2807C18.8735 61.5005 18.75 61.7986 18.75 62.1094V64.4531C18.75 64.7639 18.8735 65.062 19.0932 65.2818C19.313 65.5015 19.6111 65.625 19.9219 65.625C20.2327 65.625 20.5307 65.5015 20.7505 65.2818C20.9703 65.062 21.0938 64.7639 21.0938 64.4531V62.1094C21.0938 61.7986 20.9703 61.5005 20.7505 61.2807C20.5307 61.061 20.2327 60.9375 19.9219 60.9375Z" fill="white"/>
</svg>

<svg width="75" height="75" fill="none" xmlns="http://www.w3.org/2000/svg"><path d="M66.797 23.438h-1.172v-1.172a3.521 3.521 0 00-2.344-3.314v-3.718a1.172 1.172 0 00-1.172-1.171V9.375h4.688a3.516 3.516 0 000-7.031H55.078a3.52 3.52 0 00-3.516 3.515v2.344a1.172 1.172 0 001.172 1.172h2.344v4.688a1.172 1.172 0 00-1.172 1.171v3.718a3.522 3.522 0 00-2.343 3.314v1.172H50.39a5.866 5.866 0 00-5.86 5.859v3.515H37.5V18.75h5.86a1.172 1.172 0 001.171-1.172V3.516a1.172 1.172 0 00-1.172-1.172h-9.375a3.52 3.52 0 00-3.515 3.515v26.953h-5.684l.995-23.387a1.173 1.173 0 00-1.17-1.222H3.515a1.172 1.172 0 00-1.171 1.222l2.342 55.053v7.006a1.172 1.172 0 001.172 1.172h60.938a5.865 5.865 0 005.86-5.86v-37.5a5.866 5.866 0 00-5.86-5.858zm-5.86-7.032v2.344H56.25v-2.344h4.688zM53.907 5.86a1.173 1.173 0 011.171-1.171h11.719a1.172 1.172 0 010 2.343h-12.89V5.86zm3.515 3.516h2.344v4.688h-2.344V9.375zm-3.516 12.89a1.173 1.173 0 011.172-1.171h7.031a1.173 1.173 0 011.172 1.172v1.172h-9.375v-1.172zm1.172 37.5a3.52 3.52 0 01-3.516 3.516h-18.75a3.519 3.519 0 01-3.515-3.515v-7.032a3.52 3.52 0 013.515-3.515h18.75a3.52 3.52 0 013.516 3.515v7.032zm-10.547-12.89H32.813a5.866 5.866 0 00-5.86 5.86v7.03a5.828 5.828 0 001.175 3.516H24.61a1.172 1.172 0 00-1.172 1.172v2.344a5.828 5.828 0 001.176 3.516h-3.52V69.14a1.172 1.172 0 00-2.343 0v1.171h-4.688V35.157h4.688v1.172a1.172 1.172 0 002.344 0v-1.172H44.53v11.719zM42.188 7.031a1.172 1.172 0 100 2.344v2.344a1.171 1.171 0 100 2.344v2.343h-2.546c.134-.376.202-.772.202-1.172V5.86a3.5 3.5 0 00-.202-1.171h2.545V7.03zM32.812 5.86a1.173 1.173 0 011.172-1.171h2.344a1.173 1.173 0 011.172 1.17v9.375a1.173 1.173 0 01-1.172 1.172h-3.516V5.86zm0 12.891h2.344v14.063h-2.343V18.75zm-19.92 14.062a1.172 1.172 0 00-1.172 1.171v29.297H6.982L4.938 15.234h18.25l-.749 17.578h-9.548zm10.496-22.266l-.1 2.344H4.838l-.1-2.344h18.649zM7.03 65.625h4.688v4.688H7.03v-4.688zm22.266 4.688a3.52 3.52 0 01-3.516-3.516v-1.172h32.813v1.172a3.519 3.519 0 01-3.516 3.516h-25.78zm41.016-3.516a3.52 3.52 0 01-3.516 3.516h-7.035a5.829 5.829 0 001.175-3.516v-2.344a1.172 1.172 0 00-1.171-1.172h-3.52a5.828 5.828 0 001.176-3.515v-7.032a5.867 5.867 0 00-5.86-5.859h-4.687V29.297a3.52 3.52 0 013.516-3.516h16.406a3.52 3.52 0 013.516 3.516v37.5z" fill="#fff"/><path d="M58.594 29.297c-4.6 0-8.203 2.574-8.203 5.86 0 3.285 3.603 5.859 8.203 5.859s8.203-2.574 8.203-5.86c0-3.285-3.604-5.86-8.203-5.86zm0 9.375c-3.176 0-5.86-1.61-5.86-3.516 0-1.905 2.684-3.515 5.86-3.515s5.86 1.61 5.86 3.515c0 1.906-2.684 3.516-5.86 3.516zm-38.672 1.172a1.172 1.172 0 00-1.172 1.172v2.343a1.172 1.172 0 002.344 0v-2.343a1.172 1.172 0 00-1.172-1.172zm0 7.031a1.172 1.172 0 00-1.172 1.172v2.344a1.172 1.172 0 002.344 0v-2.344a1.172 1.172 0 00-1.172-1.172zm0 7.031a1.172 1.172 0 00-1.172 1.172v2.344a1.172 1.172 0 002.344 0v-2.344a1.172 1.172 0 00-1.172-1.172zm0 7.032a1.172 1.172 0 00-1.172 1.171v2.344a1.172 1.172 0 002.344 0V62.11a1.172 1.172 0 00-1.172-1.172z" fill="#fff"/></svg>
